X: 1
T: Nessie's Neuk
C: Calum MacKinnon 1999
R: reel
Z: 2009 John Chambers <jc:trillian.mit.edu>
B: Vancouver Branch "Ruby Anniversary Collection" p.22
M: C|
L: 1/8
K: D
A2 \
| "D"DFAD FADF | "D"Adgf "A"edcA | "G"~B2dB "D"Adfa | "Em"gafd "A7"e2 ||
A2 \
| "D"DFAD FADF | "D"Adgf "A"edcB | "D"AFAd "G"BGBd | "A"cdec "D"d2 "fine"y|]
fg \
| "D"~a2ab afdf | "A"afbf "D"afed | "G"BcdB "D"Adfa | "Em"bafd "A"e2 ||
[1 fg \
| "D"agfa "A7"gece | "D"fdAG FGAd | "G"BcdB "D"Adfa | "A7"gecA "D"d2 :|
[2 AG \
| "D"~F2AF "G"~G2BG | "A"ABcA "Bm"defa | "G"bafb "D"afed | "A"Adce "D"d2 "d.C."y|]
